assets/Envelope/Flat/envelope_flat.svg

<svg width="32" height="32" viewBox="0 0 32 32" fill="none" xmlns="http://www.w3.org/2000/svg">
<rect x="1" y="5" width="30" height="22" rx="1.5" fill="#B4ACBC"/>
<rect x="2" y="7" width="28" height="18" rx="1" fill="#CDC4D6"/>
<path d="M30 23.4001L17.029 15.6175C16.3956 15.2375 15.6044 15.2375 14.971 15.6175L2 23.4001V25.0001C2 25.5524 2.44771 26.0001 3 26.0001L29 26.0001C29.5523 26.0001 30 25.5524 30 25.0001V23.4001Z" fill="#E1D8EC"/>
<path d="M2 9.76619V8H30V9.76619L17.5435 17.2401C16.5934 17.8101 15.4066 17.8101 14.4565 17.2401L2 9.76619Z" fill="#998EA4"/>
<path d="M2 8.6V7C2 6.44772 2.44772 6 3 6H29C29.5523 6 30 6.44772 30 7V8.6L17.029 16.3826C16.3956 16.7626 15.6044 16.7626 14.971 16.3826L2 8.6Z" fill="#F3EEF8"/>
</svg>

<svg xmlns="http://www.w3.org/2000/svg" width="32" height="32" fill="none"><rect width="30" height="22" x="1" y="5" fill="#B4ACBC" rx="1.5"/><rect width="28" height="18" x="2" y="7" fill="#CDC4D6" rx="1"/><path fill="#E1D8EC" d="m30 23.4-12.971-7.782a2 2 0 0 0-2.058 0L2 23.4V25a1 1 0 0 0 1 1h26a1 1 0 0 0 1-1v-1.6Z"/><path fill="#998EA4" d="M2 9.766V8h28v1.766L17.544 17.24a3 3 0 0 1-3.088 0L2 9.766Z"/><path fill="#F3EEF8" d="M2 8.6V7a1 1 0 0 1 1-1h26a1 1 0 0 1 1 1v1.6l-12.971 7.783a2 2 0 0 1-2.058 0L2 8.6Z"/></svg>
